X:10004
T:Jump at the Sun
R:Jig
C:John Kirkpatrick
O:England
M:6/8
L:1/8
Q:3/8=100
K:Em
E|"Em"EGB ^A2B|EGB ^A2B|eBB eBB|BAG "B"F3|
"Em"EGB ^A2B|EGB ^A2B|eBB "Am"cB=A|"B7"GAF "Em"E2:|
|:B|"Em"eBB gfe|"B7"fBB agf|"Em"gfe gfe|"B"f^dB "B7"c2B|
"Em"eBB gfe|"B7"fBB agf|"Em"eBB "Am"cBA|"B7"GAF "Em"E2:|
% --------------------------------- K ---------------------------------------

